X: 1
T: Da Eye Wifey
M: 4/4
L: 1/8
R: reel
K: Dmaj
D2FD EFGE|FDDE D2ED|B,E~E2 EFGA|BFAF Egfe|
f2dA BAFB|ABdB A2ED|DE~E2 A2ED|DB,B,D DD (3A,B,C|
D2FD ~E2GE|FDDE D2ED|B,E~E2 EFGA|BFGF ~E2ge|
f2dA BAFB|AF~F2 dBA2|DE~E2 A2ED|DDB,D Defg|
fd~d2 cdBd|Ad (3Acd fdcd|(3Bcd gd (3ABd ed|A2ed cage|
fd~d2 cdGd|1 Adcd BdA2|DE (3EEE A2ED| DB,B,D Defg:|2 Adcd BdAD|DE3 AFEF| DB,A,B, D4|]
